app/assets/images/book-navbar.svg

<svg width="30" height="26" viewBox="0 0 30 26" fill="none" xmlns="http://www.w3.org/2000/svg">
<path d="M15 3.98962V24.9896M15 3.98962C15 3.98962 8 -2.01038 1 2.98962V24.9896C8 19.9896 15 24.9896 15 24.9896C15 24.9896 22 19.9896 29 24.9896V2.98962C22 -2.01038 15 3.98962 15 3.98962Z" stroke="#1F29A4" stroke-width="2" stroke-linecap="round" stroke-linejoin="round"/>
</svg>

<svg width="30" height="26" fill="none" xmlns="http://www.w3.org/2000/svg"><path d="M15 3.99v21m0-21s-7-6-14-1v22c7-5 14 0 14 0s7-5 14 0v-22c-7-5-14 1-14 1z" stroke="#1F29A4" stroke-width="2" stroke-linecap="round" stroke-linejoin="round"/></svg>
